X: 243
T: Ben Bir
C: Şivelioğlu Yorgaki
O: Turkey
F: http://compmusic.upf.edu/node/140
N: nihavent--sarki--nimsofyan--ben_bir--sivelioglu_yorgaki
N: makam= nihavent
N: form= sarki
N: usul= nimsofyan = 2/4
M: 2/4
L: 1/16
K: C _B _e  
Q: 1/4=60
%%MIDI tuningsystem comma53
e2dc BAG2  | ^FG/A/FE D4  | ^feed ^cdec  | \
w:   |   |   | 
d4 z4  | 
w:   | 
ag^fg c'2ba  | agg^f fed2  | c3/2e/dc B2AB  | 
w:   |   |   | 
e2dc BAG^F  | G3d d3/2^c/d2  | G4 z4  | \
w:   |   |   | 
ag^fg a4  | b3/2a/gb a3/2g/^f2  | 
w:   |   | 
c'2ba agg^f  | g4 ^fed2  | ag^fg a4  | b3/2a/gb a3/2g/^f2  | 
w:   |   |   |   | 
c'2ba agg^f  | g4 ^fed2  | g3d e^fg2  | \
w:   |   |   | 
ag^fg c'2ba  | 
w:   | 
agg^f fed2  | c3/2e/dc B2AB  | e2dc BAG^F  | 
w:   |   |   | 
G3d d3/2^c/d2  | G4 z4  | |


